X: 308
T:Swimming In The Gutter
% Nottingham Music Database
S:Trad, arr Phil Rowe
M:6/8
K:Gm
(3A/2B/2^c/2|:"Dm"d3 AFA|d3 AFA|"Dm"d^cd fed|"Gm"eba "A7"gfe|
"Dm"d3 AFA|d3 AFA|"Gm"def "A7"gag| [1"Dm"fdd d3:|[2"Dm"fdd "C7"dcB||
|:"F"Acf fef|ac'a fcf|"Bb"dbd "F"cac|"Gm"Bag "C7"ecB|
"F"Acf fef|ac'a fcf|"Bb"dbd "F"cac| [1"C7"ede "F"fcB:|[2"C7"ede "F"f3||


